Obsidian-SemiLight/actions/22s/snap-page.svg

<svg viewBox="0 0 22 22" xmlns="http://www.w3.org/2000/svg"><path d="m4 3v16h10l4-4v-12zm1 1h12v10h-4v4h-8z" fill="#4d4d4d"/></svg>

<svg xmlns="http://www.w3.org/2000/svg" viewBox="0 0 22 22">
  <defs id="defs3051">
    <style type="text/css" id="current-color-scheme">
      .ColorScheme-Text {
        color:#4d4d4d;
      }
      </style>
  </defs>
 <path 
     style="fill:currentColor;fill-opacity:1;stroke:none" 
     d="M 4 3 L 4 19 L 14 19 L 18 15 L 18 3 L 4 3 z M 5 4 L 17 4 L 17 14 L 13 14 L 13 18 L 5 18 L 5 4 z "
	 class="ColorScheme-Text"
     />
</svg>
